outputs/icons/audio_video/volume_down_round.svg

<svg width="1200" height="1200" viewBox="0 0 1200 1200" fill="none" xmlns="http://www.w3.org/2000/svg"><g clip-path="url(#clip0_231_5140)"><path d="M925 599.99C925 511.49 874 435.489 800 398.488V800.99C874 764.49 925 688.49 925 599.99ZM250 499.988V699.99C250 727.49 272.5 749.99 300 749.99H450L614.5 914.49C646 945.99 700 923.49 700 878.99V320.488C700 275.988 646 253.489 614.5 284.988L450 449.988H300C272.5 449.988 250 472.488 250 499.988Z" fill="#1D1E23"/></g><defs><clipPath id="clip0_231_5140"><path width="24" fill="white" d="M0 0H1200V1200H0V0z"/></clipPath></defs></svg>

<svg xmlns="http://www.w3.org/2000/svg" width="1200" height="1200" fill="none"><g clip-path="url(#a)"><path fill="#000" d="M925 599.99c0-88.5-51-164.501-125-201.502V800.99c74-36.5 125-112.5 125-201M250 499.988V699.99c0 27.5 22.5 50 50 50h150l164.5 164.5c31.5 31.5 85.5 9 85.5-35.5V320.488c0-44.5-54-66.999-85.5-35.5l-164.5 165H300c-27.5 0-50 22.5-50 50"/></g><defs><clipPath id="a"><path fill="#fff" d="M0 0h1200v1200H0z"/></clipPath></defs></svg>
